X: 22271
T: La Muneira Do Areal
R: jig
M: 6/8
K: Gmajor
|:GBd cAF|FAe dBA|GBg ~f3|efe dc/B/A|
GBd cAF|FAe dBA|GBg fed|1 cBA ~G3:|2 cBA G3-|G3 Gz2||
|:GBd ~g3|~f3 efe|AB/c/d ~f3|~e3 .e2d-|d6:|
|:GAB ~c3|~B3 A3|d2c ~B3|1 AGA c2B-|B6:|2 ABA G3||

